symbols/web/pause_presentation/materialsymbolssharp/pause_presentation_wght300_48px.svg

<svg xmlns="http://www.w3.org/2000/svg" height="48" width="48"><path d="M19.25 31.45h2.25v-14.9h-2.25Zm7.25 0h2.25v-14.9H26.5ZM5 39V9h38v30Zm2.25-2.25h33.5v-25.5H7.25Zm0 0v-25.5 25.5Z"/></svg>

<svg xmlns="http://www.w3.org/2000/svg" height="48" width="48"><path d="M19.25 31.45H21.5V16.55H19.25ZM26.5 31.45H28.75V16.55H26.5ZM5 39V9H43V39ZM7.25 36.75H40.75V11.25H7.25ZM7.25 36.75V11.25V36.75Z"/></svg>
